X:1
T:Hidden Peace
T:Hidden Peace
T:L. O. Brown
T:John S. Brown, 1899
T:Public Domain Courtesy of the Cyber Hymnal™
C:L. O. Brown
Z:Public Domain
Z:Courtesy of the Cyber Hymnal™
%%score ( 1 2 ) ( 3 4 )
L:1/8
Q:1/4=110
M:3/4
K:Ab
V:1 treble 
V:2 treble 
V:3 bass 
V:4 bass 
V:1
 [CE]2 | [CA][CA] [CA]2 [DB]2 | [Ec][Ec] [Ec]2 [Fd]2 | [Ec]3 [EA] [DG][DB] | [CA]4 [CE]2 | %5
w: 1.~I|can- not tell thee|whence it came, This|peace with- in my|breast; But|
w: 2.~Be-|neath the toil and|care of life, This|hid- den stream flows|on; My|
w: 3.~I|can- not tell the|half of love, Un-|feigned, su- preme, di-|vine, That|
w: 4.~I|can- not tell thee|why He chose To|suf- fer and to|die, But|
 [CA][CA] [CA]2 [DB]2 | [Ec][Ed] !fermata![Ee]2 [Fd]2 | [Ec]3 [CA] [DB][DB] | [CA]4 || %9
w: this I know, there|fills my soul A|strange and tran- quil|rest.|
w: wear- y soul no|long- er thirsts, Nor|am I sad and|lone.|
w: caused my dark- est|in- most self With|beams of hope to|shine.|
w: if I suf- fer|here with Him I’ll|reign with Him on|high.|
"^Refrain" [_GA][GA] | [Fd]2 [Fd][Fd] [Fd]2 [FA][_FB] | [Ec]4- [Ec]2 [Ec][Ec] x2 | %12
w: |||
w: There’s a|deep, set- tled peace in my|soul, * There’s a|
w: |||
w: |||
 [EB]2 [EB][EB] [A=d]2 [Ac][Ad] | e4- !fermata![Ge]2 [Ec][Ed] | e2 [Af][Ae] [Ac]2 [GB]A | %15
w: |||
w: deep, set- tled peace in my|soul, Tho’ the bil-|* lows of sin near me|
w: |||
w: |||
 (A2 d4) [=FA][_FB] | (c2 e4)"^riten." [Ec]>[DB] | [CA]6 |] %18
w: |||
w: roll, * He a-|bides, * Christ a-|bides.|
w: |||
w: |||
V:2
 x2 | x6 | x6 | x6 | x6 | x6 | x6 | x6 | x4 || x2 | x8 | x10 | x8 | G2 AA x4 | (EA) x4 A x | %15
 _F6 x2 | E6 x2 | x6 |] %18
V:3
 [A,,A,]2 | [A,,E,][A,,E,] [A,,A,]2 [E,G,]2 | A,A, A,2 [D,A,]2 | [E,A,]3 [E,C] [E,B,][E,G,] | %4
w: ~|~ ~ ~ ~|~ ~ ~ ~|~ ~ ~ ~|
 [A,,A,]4 [A,,A,]2 | [A,,E,][A,,E,] [A,,A,]2 [E,G,]2 | A,[A,B,] !fermata![A,C]2 [D,A,]2 | %7
w: ~ ~|~ ~ ~ ~|~ ~ ~ ~|
 [E,A,]3 [E,A,] [E,G,]E, | [A,,E,]4 || [A,,A,][A,,A,] | [D,A,]2 [D,A,][D,A,] [D,A,]2 [D,A,][D,A,] | %11
w: ~ ~ ~ ~|~|~ ~|~ ~ ~ ~ ~ ~|
 A,4- C,E, _A,2 A,A, | [G,B,]2 [G,B,][G,B,] [F,B,]2 [F,B,][F,B,] | %13
w: ~ in my~soul * ~ ~|~ ~ ~ ~ ~ ~|
 B,2 CC !fermata![E,D]2 A,[A,B,] | [A,C]2 [A,D][A,C] [A,E]2 [E,D][F,C] | D2 A,4 [D,A,][D,A,] | %16
w: ~ in my~soul * * *|||
 A,6 [E,A,]>[E,G,] | [A,,E,A,]6 |] %18
w: ||
V:4
 x2 | x6 | A,A, A,2 x2 | x6 | x6 | x6 | A, x5 | x5 E, | x4 || x2 | x8 | A,,2 _A,2 A,A, x4 | x8 | %13
 E,4- A, x3 | x8 | D,6 x2 | E,2 C,4 x2 | x6 |] %18

